material/.icons/material/image-size-select-small.svg

<svg xmlns="http://www.w3.org/2000/svg" viewBox="0 0 24 24"><path d="M23 15h-2v2h2v-2m0-4h-2v2h2v-2m0 8h-2v2c1 0 2-1 2-2M15 3h-2v2h2V3m8 4h-2v2h2V7m-2-4v2h2c0-1-1-2-2-2M3 21h8v-6H1v4a2 2 0 002 2M3 7H1v2h2V7m12 12h-2v2h2v-2m4-16h-2v2h2V3m0 16h-2v2h2v-2M3 3C2 3 1 4 1 5h2V3m0 8H1v2h2v-2m8-8H9v2h2V3M7 3H5v2h2V3z"/></svg>

<?xml version="1.0" encoding="UTF-8"?><!DOCTYPE svg PUBLIC "-//W3C//DTD SVG 1.1//EN" "http://www.w3.org/Graphics/SVG/1.1/DTD/svg11.dtd"><svg xmlns="http://www.w3.org/2000/svg" xmlns:xlink="http://www.w3.org/1999/xlink" version="1.1" id="mdi-image-size-select-small" width="24" height="24" viewBox="0 0 24 24"><path d="M23,15H21V17H23V15M23,11H21V13H23V11M23,19H21V21C22,21 23,20 23,19M15,3H13V5H15V3M23,7H21V9H23V7M21,3V5H23C23,4 22,3 21,3M3,21H11V15H1V19A2,2 0 0,0 3,21M3,7H1V9H3V7M15,19H13V21H15V19M19,3H17V5H19V3M19,19H17V21H19V19M3,3C2,3 1,4 1,5H3V3M3,11H1V13H3V11M11,3H9V5H11V3M7,3H5V5H7V3Z" /></svg>
